!!!!SEGMENT: pl-wtm--r-1652_stefani-jozef--sami-tylko-kominiarze.krn
!!!cenid: 18xx:2046
!!!COM: Stefani, Józef
!!!COM-rismid: pe30024097
!!!CDT: 1800/04/16-1876/03/19
!!!CNT: Polish
!!!OTL: Sami tylko kominiarze
!!!PDT:
!!!AGN: Secular
!!!SMS-siglum: PL-Wtm
!!!SMS-shelfmark: R 1652
!!!SMS-shelfwork: W
!!!SMS-variant:
!!!SMS-altvar:
!!!NIFC-rismid: 1001114893
!!!URL-scan: http://repozytorium.nifc.pl/skany/pl-wtm-nut--r1652--r1653--r1654--r1655--r1656--r1657--r1658--r1659--r1660--r1661
!!!ONB-nifc: UWAGA: No. 9, skan 0002
**kern	**kern	**dynam	**kern	**text	**dynam
*part2	*part2	*part2	*part1	*part1	*part1
*staff3	*staff2	*	*staff1	*staff1	*
*Iforte	*Iforte	*	*Ivox	*	*
*I"Fortepian	*I"Fortepian	*	*I"Spiew	*	*
*I'pf	*I'pf	*	*I'V	*	*
*clefF4	*clefG2	*	*clefG2	*	*
*k[b-e-]	*k[b-e-]	*	*k[b-e-]	*	*
*B-:	*B-:	*	*B-:	*	*
*M3/8	*M3/8	*	*M3/8	*	*
=1	=1	=1	=1	=1	=1
*^	*	*	*	*	*
!	!	!	!	!LO:TX:a:i:t=Allegro.	!	!LO:DY:a:rj
8BB-\L	4.BB-/	16b-LL 16d/	f	16b- 16d/	Sa-	f
.	.	16fJJ 16d/	.	16f 16d/	-mi	.
8B-\	.	8gL 8e-/	.	8g 8e-/	tyl-	.
8B-\J	.	8aJ 8e- 8c/	.	8a 8c/	-ko	.
*v	*v	*	*	*	*	*
=2	=2	=2	=2	=2	=2
(<8qBB-/	.	.	.	.	.
16B-\LL)	16b-LL 16d/	.	16b- 16d/	Ko-	.
16A\JJ	16ccJJ 16f/	.	16cc 16f/	-mi-	.
8B-\L	8ddL 8b-/	.	8dd 8b-\	-nia-	.
8F\J	8ccJ 8a/	.	8cc 8a\	-rze	.
=3	=3	=3	=3	=3	=3
16G\LL	16b-LL 16g/	.	16b- 16g/	Za-	.
16C\JJ	16ccJJ 16en/	.	16cc 16en/	-smo-	.
!LO:TX:t=P:problem:mixed beam	!	!	!	!	!
8F\L	8aL 8f/	.	8a 8f/	-lo-	.
8BB-/J	8b-J 8g 8d/	.	8b- 8d/	-ne	.
!!LO:LB:g=original
=4	=4	=4	=4	=4	=4
16C\LL	16aLL 16f 16c/	.	16a 16c/	ma-	.
16B-JJ 16C\	16gJJ 16en/	.	16g 16en/	-ią	.
8AL 8F\	8f/L	.	8f/	twa-	.
8AJ 8F\	8f/J	.	8f/	-rże;	.
=5	=5	=5	=5	=5	=5
*^	*	*	*	*	*
8BB-\L	4.BB-/	16b-LL 16d/	.	16b- 16d/	Dzie-	.
.	.	16fJJ 16d/	.	16f 16d/	-ci	.
8B-\	.	8gL 8e-/	.	8g 8e-/	rę-	.
8B-\J	.	8aJ 8c/	.	8a 8c/	-ce	.
*v	*v	*	*	*	*	*
=6	=6	=6	=6	=6	=6
(>8qBB-/	.	.	.	.	.
16B-\LL)	16b-LL 16d/	.	16b- 16d/	i	.
16A\JJ	16ccJJ 16f/	.	16cc 16f/	twarz	.
!LO:TX:t=P:problem:mixed beam	!	!	!	!	!
8B-\L	8ddL 8b-/	.	8dd 8b-\	my-	.
8BB-/J	8b-J 8d/	.	8b- 8d/	-ią	.
=7	=7	=7	=7	=7	=7
16E-/LL	16gLL 16e-/	.	16g 16e-/	I	.
16C/JJ	16ee-JJ 16g 16e-/	.	16ee- 16g/	nie	.
8D\L	8ddL 8b- 8f/	.	8dd 8g/	cho-	.
8E-\J	8ccJ 8g 8e-/	.	8cc 8e-/	-dzą	.
!!LO:LB:g=original
=8	=8	=8	=8	=8	=8
16dLL 16B- 16F\	16ffLL 16f/	.	16ff 16d/	z bru-	.
16e-JJ 16c 16F\	16aJJ 16f/	.	16a 16e-/	-dno	.
8e-L 8c 8F\	8ccL 8a 8f/	.	8cc 8e-/	szy-	.
8dJ 8B-\	8b-J 8f/	.	8b- 8d/	-ją	.
=9	=9	=9	=9	=9	=9
*^	*	*	*	*	*
*	*	*	*	*^	*	*
!	!	!	!	!LO:TX:a:t=1.	!	!	!LO:DY:a:rj
!	!	!	!	!	!LO:N:vis=1	!	!
8F\L	4.F/	16a/LL	.	16a/	4.re	I	p
!	!	!	!	!LO:TX:a:t=Głos	!	!	!
.	.	16cc/JJ	.	16cc/	.	nie	.
8e- 8A\	.	8f/L	.	8f/	.	cho-	.
8e-J 8A\	.	8fT/J	.	8f/	.	-dzą	.
*	*	*	*	*v	*v	*	*
=10	=10	=10	=10	=10	=10	=10
!	!	!	!	!LO:TX:a:t=razem	!	!
8BB-\L	4.BB-/	16b-LL 16d/	.	16b- 16d/	I	.
.	.	16ddJJ 16f/	.	16dd 16f/	nie	.
8B-\	.	8fL 8d/	.	8f 8d/	cho-	.
8B-\J	.	8fJ 8d/	.	8f 8d/	-dzą	.
=11	=11	=11	=11	=11	=11	=11
!	!	!	!	!LO:TX:a:t=I	!	!
8F\L	4.F/	16a/LL	.	16a/	z bru-	.
!	!	!	!	!LO:TX:a:t=Głos	!	!
.	.	16cc/JJ	.	16cc/	-dno	.
8e- 8A\	.	8f/L	.	8f/	szy-	.
8e-J 8A\	.	8fT/J	.	8f/	-ją	.
=12	=12	=12	=12	=12	=12	=12
!	!	!	!	!LO:TX:a:t=razem	!	!
8BB-\L	4.BB-/	16b-LL 16d/	.	16b- 16d/	z bru-	.
.	.	16ddJJ 16f/	.	16dd 16f/	-dno	.
8B-\	.	8fL 8d/	.	8f 8d/	szy-	.
8B-\J	.	8fJ 8d/	.	8f 8d/	-ją.	.
*v	*v	*	*	*	*	*
!!LO:LB:g=original
=13	=13	=13	=13	=13	=13
!	!	!LO:DY:rj	!	!	!LO:DY:a:rj
16E-/LL	16gLL 16e-/	f	16g 16e-/	I	f
16C/JJ	16ee-JJ 16cc 16g/	.	16ee- 16g/	nie	.
8D\L	8ddL 8b- 8f/	.	8dd 8f/	cho-	.
8E-\J	8ccJ 8g/	.	8cc 8e-/	-dzą	.
=14	=14	=14	=14	=14	=14
16dLL 16B- 16F\	16ffLL 16f/	.	16ff 16d/	z bru-	.
16e-JJ 16c 16F\	16aJJ 16f/	.	16a 16e-/	-dno	.
8e-L 8c 8F\	8ccL 8a 8f/	.	8cc 8e-/	szy-	.
8dJ 8B-\	8b-J 8f/	.	8b- 8d/	-ją.	.
=15	=15	=15	=15	=15	=15
16E-\LL	16gLL 16e-/	.	4.r	.	.
16C\JJ	16ee-JJ 16cc 16g/	.	.	.	.
8D\L	8ddL 8b- 8f/	.	.	.	.
8E-\J	8ccJ 8g/	.	.	.	.
=16	=16	=16	=16	=16	=16
16dLL 16B- 16F\	16ffLL 16f/	.	4.r	.	.
16e-JJ 16c 16F\	16aJJ 16f/	.	.	.	.
4d 4B-\	4b- 4f/	.	.	.	.
==	==	==	==	==	==
*-	*-	*-	*-	*-	*-
!!!system-decoration: (s1){(s2,s3)}
!!!RDF**kern: > = above
!!!RDF**kern: < = below
!!!EED: Antoni Szymański
!!!EST: 2021-05-07
!!!ENC: Tomasz Grochalski
!!!END: 2021-04-24
